X:185
T:Lucy's Delight
M:C|
L:1/8
B:Thompson's Compleat Collection of 200 Favourite Country Dances, vol. 1 (London, 1757)
Z:Transcribed and edited by Flynn Titford-Mock, 2007
Z:abc's:AK/Fiddler's Companion
K:G
d/c/B/A/ Gd ecBg|d/c/B/A/ Gd cA=fA|d/c/B/A/ Gd edcB|cdBc A2 D2:|
|:d/c/B/A/ Gd|ecBg|d/c/B/A/ Gd cA=fA|d/c/B/A/ Gd ecBg|c>dcA GG/G/ G2:|
|:BG A/B/c/A/ BG A/B/c/A/|BGcA =FA A/B/c/A/|BG A/B/c/A/ BG A/B/c/A/|c>dc>A GG/G/ G2:|

